public/assets/img/save2.svg

<svg width="54" height="50" viewBox="0 0 54 50" fill="none" xmlns="http://www.w3.org/2000/svg">
<path d="M24.3 5.35714H29.7C30.1971 5.35714 30.6 4.9574 30.6 4.46429C30.6 3.97117 30.1971 3.57143 29.7 3.57143H24.3C23.8029 3.57143 23.4 3.97117 23.4 4.46429C23.4 4.9574 23.8029 5.35714 24.3 5.35714Z" fill="#90A1AE"/>
<path d="M39.6 5.35714H49.5C49.9971 5.35714 50.4 4.9574 50.4 4.46429C50.4 3.97117 49.9971 3.57143 49.5 3.57143H39.6C39.1029 3.57143 38.7 3.97117 38.7 4.46429C38.7 4.9574 39.1029 5.35714 39.6 5.35714Z" fill="#90A1AE"/>
<path d="M49.5 0H4.5C2.01595 0.00295189 0.00297551 1.99995 0 4.46429V45.5357C0.00297551 48 2.01595 49.9971 4.5 50H49.5C51.9841 49.9971 53.997 48 54 45.5357V4.46429C53.997 1.99995 51.9841 0.00295189 49.5 0ZM4.5 1.78571H49.5C50.9912 1.78571 52.2 2.98495 52.2 4.46429V7.14286H1.8V4.46429C1.8 2.98495 3.00883 1.78571 4.5 1.78571ZM49.5 48.2143H4.5C3.00883 48.2143 1.8 47.015 1.8 45.5357V8.92857H52.2V45.5357C52.2 47.015 50.9912 48.2143 49.5 48.2143Z" fill="#90A1AE"/>
<path d="M4.5 5.35714C4.99706 5.35714 5.4 4.9574 5.4 4.46429C5.4 3.97117 4.99706 3.57143 4.5 3.57143C4.00294 3.57143 3.6 3.97117 3.6 4.46429C3.6 4.9574 4.00294 5.35714 4.5 5.35714Z" fill="#90A1AE"/>
<path d="M8.1 5.35714C8.59706 5.35714 9 4.9574 9 4.46429C9 3.97117 8.59706 3.57143 8.1 3.57143C7.60294 3.57143 7.2 3.97117 7.2 4.46429C7.2 4.9574 7.60294 5.35714 8.1 5.35714Z" fill="#90A1AE"/>
<path d="M11.7 5.35714C12.1971 5.35714 12.6 4.9574 12.6 4.46429C12.6 3.97117 12.1971 3.57143 11.7 3.57143C11.2029 3.57143 10.8 3.97117 10.8 4.46429C10.8 4.9574 11.2029 5.35714 11.7 5.35714Z" fill="#90A1AE"/>
<path d="M34.2 30.3571C31.9456 30.3602 29.8647 31.558 28.7433 33.4982C27.6642 32.8816 26.3358 32.8816 25.2567 33.4982C23.5965 30.6262 19.982 29.5143 16.9752 30.9507C13.9684 32.3871 12.5907 35.8838 13.8188 38.9622C15.0469 42.0407 18.4634 43.6551 21.6467 42.6611C24.83 41.6672 26.6987 38.4025 25.9281 35.1813C26.5749 34.7446 27.4251 34.7446 28.0719 35.1813C27.4602 37.771 28.5678 40.4611 30.8321 41.8855C33.0965 43.3099 36.0215 43.1564 38.1218 41.503C40.2221 39.8497 41.0374 37.0587 40.1538 34.5474C39.2702 32.0361 36.8812 30.3547 34.2 30.3571ZM19.8 41.0714C17.3147 41.0714 15.3 39.0727 15.3 36.6071C15.3 34.1416 17.3147 32.1429 19.8 32.1429C22.2853 32.1429 24.3 34.1416 24.3 36.6071C24.297 39.0715 22.284 41.0685 19.8 41.0714ZM34.2 41.0714C31.7147 41.0714 29.7 39.0727 29.7 36.6071C29.7 34.1416 31.7147 32.1429 34.2 32.1429C36.6853 32.1429 38.7 34.1416 38.7 36.6071C38.697 39.0715 36.684 41.0685 34.2 41.0714Z" fill="#90A1AE"/>
<path d="M37.5183 23.0723L35.0433 15.0893C34.7422 14.121 34.0414 13.3248 33.1149 12.8983C32.1884 12.4717 31.1231 12.4548 30.1833 12.8518L27.7011 13.9089C27.2534 14.1053 26.743 14.1053 26.2953 13.9089L23.8158 12.8482C22.876 12.4513 21.8107 12.4681 20.8842 12.8947C19.9577 13.3212 19.2569 14.1175 18.9558 15.0857L16.4808 23.0723C13.9533 23.8297 11.6615 25.2124 9.8208 27.0902C9.58737 27.3545 9.53191 27.73 9.67911 28.0496C9.82632 28.3693 10.1488 28.5735 10.503 28.5714H43.497C43.8498 28.5715 44.1701 28.367 44.3163 28.0484C44.4624 27.7298 44.4074 27.3558 44.1756 27.092C42.3359 25.2139 40.045 23.8307 37.5183 23.0723ZM20.6784 15.6098C20.8297 15.1262 21.1802 14.7286 21.6431 14.5153C22.106 14.302 22.6383 14.2929 23.1084 14.4902L25.5762 15.5402C26.4814 15.9339 27.5114 15.9339 28.4166 15.5402L30.8889 14.4866C31.3591 14.2897 31.8914 14.2991 32.3543 14.5125C32.8172 14.7259 33.1675 15.1235 33.3189 15.6071L35.4402 22.4518C29.8962 21.0827 24.0984 21.0827 18.5544 22.4518L20.6784 15.6098ZM12.87 26.7857C16.0344 24.5741 21.2787 23.2143 27 23.2143C30.2066 23.1912 33.3978 23.6555 36.4626 24.5911C36.5044 24.6071 36.5474 24.6196 36.5913 24.6286C38.2023 25.1237 39.7315 25.8505 41.13 26.7857H12.87Z" fill="#90A1AE"/>
</svg>

<svg width="54" height="50" fill="none" xmlns="http://www.w3.org/2000/svg"><path d="M24.3 5.357h5.4c.497 0 .9-.4.9-.893a.896.896 0 0 0-.9-.893h-5.4c-.497 0-.9.4-.9.893s.403.893.9.893ZM39.6 5.357h9.9c.497 0 .9-.4.9-.893a.896.896 0 0 0-.9-.893h-9.9c-.497 0-.9.4-.9.893s.403.893.9.893Z" fill="#90A1AE"/><path d="M49.5 0h-45C2.016.003.003 2 0 4.464v41.072C.003 48 2.016 49.997 4.5 50h45c2.484-.003 4.497-2 4.5-4.464V4.464C53.997 2 51.984.003 49.5 0Zm-45 1.786h45c1.491 0 2.7 1.199 2.7 2.678v2.679H1.8V4.464a2.69 2.69 0 0 1 2.7-2.678Zm45 46.428h-45a2.69 2.69 0 0 1-2.7-2.678V8.929h50.4v36.607a2.69 2.69 0 0 1-2.7 2.678Z" fill="#90A1AE"/><path d="M4.5 5.357c.497 0 .9-.4.9-.893a.896.896 0 0 0-.9-.893c-.497 0-.9.4-.9.893s.403.893.9.893ZM8.1 5.357c.497 0 .9-.4.9-.893a.896.896 0 0 0-.9-.893c-.497 0-.9.4-.9.893s.403.893.9.893ZM11.7 5.357c.497 0 .9-.4.9-.893a.896.896 0 0 0-.9-.893c-.497 0-.9.4-.9.893s.403.893.9.893ZM34.2 30.357a6.31 6.31 0 0 0-5.457 3.141 3.517 3.517 0 0 0-3.486 0c-1.66-2.872-5.275-3.984-8.282-2.547-3.007 1.436-4.384 4.933-3.156 8.011 1.228 3.079 4.644 4.693 7.828 3.7 3.183-.995 5.052-4.26 4.281-7.48a1.918 1.918 0 0 1 2.144 0 6.228 6.228 0 0 0 2.76 6.703 6.34 6.34 0 0 0 7.29-.382 6.22 6.22 0 0 0 2.032-6.956 6.297 6.297 0 0 0-5.954-4.19ZM19.8 41.071c-2.485 0-4.5-1.998-4.5-4.464 0-2.465 2.015-4.464 4.5-4.464s4.5 1.999 4.5 4.464c-.003 2.465-2.016 4.462-4.5 4.464Zm14.4 0c-2.485 0-4.5-1.998-4.5-4.464 0-2.465 2.015-4.464 4.5-4.464s4.5 1.999 4.5 4.464c-.003 2.465-2.016 4.462-4.5 4.464ZM37.518 23.072l-2.475-7.983a3.587 3.587 0 0 0-1.928-2.19 3.633 3.633 0 0 0-2.932-.047l-2.482 1.057a1.75 1.75 0 0 1-1.406 0l-2.48-1.06a3.634 3.634 0 0 0-2.93.046 3.587 3.587 0 0 0-1.93 2.19l-2.474 7.987a15.592 15.592 0 0 0-6.66 4.018.887.887 0 0 0-.142.96.9.9 0 0 0 .824.521h32.994a.9.9 0 0 0 .82-.523.887.887 0 0 0-.141-.956 15.593 15.593 0 0 0-6.658-4.02Zm-16.84-7.462c.152-.484.502-.881.965-1.095a1.82 1.82 0 0 1 1.465-.025l2.468 1.05a3.563 3.563 0 0 0 2.84 0l2.473-1.053a1.822 1.822 0 0 1 1.465.025c.463.214.813.611.965 1.095l2.121 6.845a35.224 35.224 0 0 0-16.886 0l2.124-6.842ZM12.87 26.786c3.164-2.212 8.409-3.572 14.13-3.572a31.631 31.631 0 0 1 9.591 1.415 17.316 17.316 0 0 1 4.539 2.157H12.87Z" fill="#90A1AE"/></svg>
